packages/ui/public/icons/plus-square.svg

<svg width="25" height="24" viewBox="0 0 25 24" fill="none" xmlns="http://www.w3.org/2000/svg">
<path opacity="0.12" d="M3.5 7.8C3.5 6.11984 3.5 5.27976 3.82698 4.63803C4.1146 4.07354 4.57354 3.6146 5.13803 3.32698C5.77976 3 6.61984 3 8.3 3H16.7C18.3802 3 19.2202 3 19.862 3.32698C20.4265 3.6146 20.8854 4.07354 21.173 4.63803C21.5 5.27976 21.5 6.11984 21.5 7.8V16.2C21.5 17.8802 21.5 18.7202 21.173 19.362C20.8854 19.9265 20.4265 20.3854 19.862 20.673C19.2202 21 18.3802 21 16.7 21H8.3C6.61984 21 5.77976 21 5.13803 20.673C4.57354 20.3854 4.1146 19.9265 3.82698 19.362C3.5 18.7202 3.5 17.8802 3.5 16.2V7.8Z" fill="white"/>
<path d="M12.5 8V12M12.5 12V16M12.5 12H8.5M12.5 12H16.5M8.3 21H16.7C18.3802 21 19.2202 21 19.862 20.673C20.4265 20.3854 20.8854 19.9265 21.173 19.362C21.5 18.7202 21.5 17.8802 21.5 16.2V7.8C21.5 6.11984 21.5 5.27976 21.173 4.63803C20.8854 4.07354 20.4265 3.6146 19.862 3.32698C19.2202 3 18.3802 3 16.7 3H8.3C6.61984 3 5.77976 3 5.13803 3.32698C4.57354 3.6146 4.1146 4.07354 3.82698 4.63803C3.5 5.27976 3.5 6.11984 3.5 7.8V16.2C3.5 17.8802 3.5 18.7202 3.82698 19.362C4.1146 19.9265 4.57354 20.3854 5.13803 20.673C5.77976 21 6.61984 21 8.3 21Z" stroke="white" stroke-width="2" stroke-linecap="round" stroke-linejoin="round"/>
</svg>

<svg width="25" height="24" fill="none" xmlns="http://www.w3.org/2000/svg"><path opacity=".12" d="M3.5 7.8c0-1.68 0-2.52.327-3.162a3 3 0 0 1 1.311-1.311C5.78 3 6.62 3 8.3 3h8.4c1.68 0 2.52 0 3.162.327a3 3 0 0 1 1.311 1.311c.327.642.327 1.482.327 3.162v8.4c0 1.68 0 2.52-.327 3.162a3 3 0 0 1-1.311 1.311C19.22 21 18.38 21 16.7 21H8.3c-1.68 0-2.52 0-3.162-.327a3 3 0 0 1-1.311-1.311C3.5 18.72 3.5 17.88 3.5 16.2V7.8Z" fill="#fff"/><path d="M12.5 8v4m0 0v4m0-4h-4m4 0h4m-8.2 9h8.4c1.68 0 2.52 0 3.162-.327a3 3 0 0 0 1.311-1.311c.327-.642.327-1.482.327-3.162V7.8c0-1.68 0-2.52-.327-3.162a3 3 0 0 0-1.311-1.311C19.22 3 18.38 3 16.7 3H8.3c-1.68 0-2.52 0-3.162.327a3 3 0 0 0-1.311 1.311C3.5 5.28 3.5 6.12 3.5 7.8v8.4c0 1.68 0 2.52.327 3.162a3 3 0 0 0 1.311 1.311C5.78 21 6.62 21 8.3 21Z" stroke="#fff" stroke-width="2" stroke-linecap="round" stroke-linejoin="round"/></svg>
